X:3709
T:Dairy Maid, The
R:reel
S:Charlie Lennon
D:Planxty: The Well below the Valley
Z:id:hn-reel-103
M:C|
K:D
AF~F2 DF~F2|AFDE FEEF|1 AF~F2 dFAF|E2DE FDDF:|2 G2BG F2AF|E2DE FDFA||
d3f abag|f2ed eBBA|d3f adfa|bgeg fddA|
defa gbag|f2eg fBBA|defa gbag|f2eg fedB||
